X:1
T:St. Bartholomew (Duncalf), LM
T:St. Bartholomew (Duncalf), LM
T:Henry Duncalf, 1762
T:Public Domain Courtesy of the Cyber Hymnal™
C:Henry Duncalf, 1762
Z:Public Domain
Z:Courtesy of the Cyber Hymnal™
%%score ( 1 2 ) ( 3 4 )
L:1/8
Q:1/4=125
M:3/4
K:Bb
V:1 treble 
V:2 treble 
V:3 bass 
V:4 bass 
V:1
 [DF]2 | [FB]4 F2 | [Fc]4 F2 | (d2 c2) [=EB]2 | [Fc]4 F2 | [=EB]4 [FA]2 | [DG]4 F2 | %7
 ([DG]2 [CF]2) [C=E]2 | [A,F]4 [DA]2 | (B3 A) [DG]2 | [Dd]4 D2 | (E3 D) [A,E]2 | [B,D]4 [CF]2 | %13
 (B2 F2) [EG]2 | ([B,F]2 [A,E]2) [B,D]2 | ([Cc]2 [DB]2) [EA]2 | [DB]4 |] %17
V:2
 x2 | x4 F2 | x4 F2 | F4 x2 | x4 F2 | x6 | x4 F2 | x6 | x6 | D4 x2 | x4 D2 | C4 x2 | x6 | F4 x2 | %14
 x6 | x6 | x4 |] %17
V:3
 [B,,B,]2 | [B,D]4 [B,D]2 | [A,C]4 [A,C]2 | B,2 [A,C]2 G,2 | [F,A,]4 [A,,C]2 | [G,,B,]4 [F,,C]2 | %6
 [B,,D]4 [A,,C]2 | ([B,,B,]2 [C,A,]2) [C,G,]2 | F,4 [D,^F,]2 | (G,3 A,) [G,B,]2 | %10
 [^F,A,]4 [G,B,]2 | [C,G,]4 F,2 | [B,,F,]4 A,2 | [D,B,]4 [E,B,]2 | F,4 [B,,F,]2 | %15
 ([E,G,]2 F,2) C2 | [B,,B,]4 |] %17
V:4
 x2 | x6 | x6 | (B,2 G,2) x2 | x6 | x6 | x6 | x6 | ^F,4 x2 | G,4 x2 | x6 | x4 F,2 | x4 (F,>E,) | %13
 x6 | (D,2 C,2) x2 | x2 F,4 | x4 |] %17

